X:1
T:Jesus the Way
T:Jesus the Way
T:William Howard Doane
T:Samuel Sparks Fisher (1832-1874)
T:Public Domain Courtesy of the Cyber Hymnal™
C:William Howard Doane
Z:Public Domain
Z:Courtesy of the Cyber Hymnal™
%%score ( 1 2 ) ( 3 4 )
L:1/8
Q:1/4=112
M:2/2
K:Ab
V:1 treble 
V:2 treble 
V:3 bass 
V:4 bass 
V:1
 [Ec]4 [DB]2 [CA]2 | [DA]3 [DF] [DF]4 | (E2 c2) [EA]3 E | (c4 B4) | [Ec]4 [DB]2 [CA]2 | %5
w: 1.~Come, bro- ther,|Je- sus saith,|I * am the|way; *|Here find the|
w: 2.~Here rest, then,|trou- bled heart,|I * am the|truth; *|Peace let My|
w: 3.~Fear not the|gloom- y vale;|I * am the|life; *|My word can|
 [DA]3 [DF] [DF]4 | ([CE]2 [Ec]2) [Ec]3 [DB] | [CA]8 | [EB]4 [EA]2 [EG]2 | [Ec]3 [EB] [EA]4 | %10
w: heav’n- ly path;|I * am the|way;|Earth, sin and|sor- row flee,|
w: word im- part;|I * am the|truth;|Sin’s hea- vy|debt is paid,|
w: ne- ver fail;|I * am the|life.|And tho’ the|night come on,|
 [Ec]4 [EB]2 [EA]2 | [Ee]3 [Ed] [Ec]4 | [Ec]4 [DB]2 [CA]2 | [DA]3 [DF] [DF]4 | %14
w: Glo- ry and|glad- ness see,|Let Me your|pat- tern be;|
w: No more shall|doubt per- vade,|Bright hopes shall|ne- ver fade;|
w: Soon all the|shades be gone,|Soon will the|morn- ing dawn;|
 ([CE]2 [Ec]2) [Ec]3 [DB] | [CA]8 ||"^Refrain" [Ec]4 [EA]3 E | (c4 B4) | [Ed]4 [EB]3 [EG] | %19
w: I * am the|way.||||
w: I * am the|truth.|I am the|way, *|I am the|
w: I * am the|life.||||
 [DB]4 [CA]4 | [Ec]4 [DB]2 [CA]2 | ([DA]3 [DF]) [DF]4 | [CE]2 [Ec]2 [Ec]3 [DB] | [CA]8 |] %24
w: |||||
w: way, Let|Me your your|pat- * tern|be, I am the|way.|
w: |||||
V:2
 x8 | x8 | C4 x E x2 | E8 | x8 | x8 | x8 | x8 | x8 | x8 | x8 | x8 | x8 | x8 | x8 | x8 || x7 E | %17
 E8 | x8 | x8 | x8 | x8 | x8 | x8 |] %24
V:3
 [A,,A,]4 [A,,E,]2 [A,,E,]2 | [D,F,]3 [D,A,] [D,A,]4 | (A,2 E,2) [A,,C]3 [C,A,] | (A,4 G,4) | %4
 [A,,A,]4 [A,,E,]2 [A,,E,]2 | [D,F,]3 [D,A,] [D,A,]4 | [E,A,]4 [E,A,]3 E, | [A,,E,]8 | %8
 [E,D]4 [E,C]2 [E,B,]2 | A,3 [A,D] [A,C]4 | [A,,A,]4 [A,,D]2 [A,,C]2 | [C,A,]3 [C,G,] [A,,A,]4 | %12
 [A,,A,]4 [A,,E,]2 [A,,E,]2 | [D,F,]3 [D,A,] [D,A,]4 | [E,A,]4 [E,A,]3 E, | [A,,E,]8 || %16
 (A,2 E,2) [A,,C]3 [C,A,] | (A,4 G,4) | (G,2 B,2) [E,D]3 [E,B,] | E,8 | %20
 [A,,A,]4 [A,,E,]2 [A,,E,]2 | ([D,F,]3 [D,A,]) [D,A,]4 | [E,A,]4 [E,A,]3 E, | [A,,E,]8 |] %24
V:4
 x8 | x8 | A,,4 x4 | E,8 | x8 | x8 | x7 E, | x8 | x8 | A,3 x5 | x8 | x8 | x8 | x8 | x7 E, | x8 || %16
 A,,4 x4 | E,8 | E,4 x4 | (E,4 A,,4) | x8 | x8 | x7 E, | x8 |] %24

